static/assets/img/icons/theme/devices/lte-1.svg

<svg height="24" viewBox="0 0 24 24" width="24" xmlns="http://www.w3.org/2000/svg"><g fill="none" fill-rule="evenodd"><path d="m0 0h24v24h-24z" opacity="0"/><g fill="#000"><path d="m15.4508979 17.4029496-1.2724001-1.5430482c1.1460032-.9449962 1.8215022-2.3461542 1.8215022-3.8599014 0-1.5087915-.6710418-2.90581596-1.8106159-3.85089879l1.2767279-1.53946933c1.5929816 1.32110717 2.533888 3.27995571 2.533888 5.39036812 0 2.1173586-.9471394 4.0819686-2.5491021 5.4029496zm2.5702133 3.0652132-1.277301-1.5389938c2.0488934-1.7004965 3.2561898-4.2151593 3.2561898-6.929169 0-2.71025768-1.2039334-5.22179268-3.2479685-6.92233744l1.2791175-1.53748444c2.4960327 2.07658631 3.968851 5.14904422 3.968851 8.45982188 0 3.3153667-1.476926 6.3916375-3.9788888 8.4681628zm-9.47200913-3.0652132c-1.60196263-1.320981-2.54910207-3.285591-2.54910207-5.4029496 0-2.11041241.94090645-4.06926095 2.53388797-5.39036812l1.27672791 1.53946933c-1.13957406.94508283-1.81061588 2.34210729-1.81061588 3.85089879 0 1.5137472.67549895 2.9149052 1.82150222 3.8599014zm-2.57021327 3.0652132c-2.50196277-2.0765253-3.9788888-5.1527961-3.9788888-8.4681628 0-3.31077766 1.47281829-6.38323557 3.96885102-8.45982188l1.2791175 1.53748444c-2.04403513 1.70054476-3.24796852 4.21207976-3.24796852 6.92233744 0 2.7140097 1.20729644 5.2286725 3.25618985 6.929169z" fill-rule="nonzero" opacity=".3"/><circle cx="12" cy="12" r="2"/></g></g></svg>

<svg width="24px" height="24px" viewBox="0 0 24 24" version="1.1" xmlns="http://www.w3.org/2000/svg" xmlns:xlink="http://www.w3.org/1999/xlink">
    <title>Icon For LTE#1</title>
    <g stroke="none" stroke-width="1" fill="none" fill-rule="evenodd">
        <rect opacity="0" x="0" y="0" width="24" height="24"></rect>
        <path d="M15.4508979,17.4029496 L14.1784978,15.8599014 C15.324501,14.9149052 16,13.5137472 16,12 C16,10.4912085 15.3289582,9.09418404 14.1893841,8.14910121 L15.466112,6.60963188 C17.0590936,7.93073905 18,9.88958759 18,12 C18,14.1173586 17.0528606,16.0819686 15.4508979,17.4029496 Z M18.0211112,20.4681628 L16.7438102,18.929169 C18.7927036,17.2286725 20,14.7140097 20,12 C20,9.28974232 18.7960666,6.77820732 16.7520315,5.07766256 L18.031149,3.54017812 C20.5271817,5.61676443 22,8.68922234 22,12 C22,15.3153667 20.523074,18.3916375 18.0211112,20.4681628 Z M8.54910207,17.4029496 C6.94713944,16.0819686 6,14.1173586 6,12 C6,9.88958759 6.94090645,7.93073905 8.53388797,6.60963188 L9.81061588,8.14910121 C8.67104182,9.09418404 8,10.4912085 8,12 C8,13.5137472 8.67549895,14.9149052 9.82150222,15.8599014 L8.54910207,17.4029496 Z M5.9788888,20.4681628 C3.47692603,18.3916375 2,15.3153667 2,12 C2,8.68922234 3.47281829,5.61676443 5.96885102,3.54017812 L7.24796852,5.07766256 C5.20393339,6.77820732 4,9.28974232 4,12 C4,14.7140097 5.20729644,17.2286725 7.25618985,18.929169 L5.9788888,20.4681628 Z" fill="#000000" fill-rule="nonzero" opacity="0.3"></path>
        <circle fill="#000000" cx="12" cy="12" r="2"></circle>
    </g>
</svg>
